!!!!SEGMENT: pl-wtm--r-909-m--004_moniuszko-stanislaw--witolorauda.krn
!!!cenid: 18xx:2866
!!!COM: Moniuszko, Stanisław
!!!COM-rismID:
!!!CDT: 1819/05/05-1872/06/04
!!!CNT: Polish
!!!GTL: Witolorauda
!!!OTL: 4.
!!!PDT: 1893
!!!AGN:
!!!SMS-siglum: PL-Wtm
!!!SMS-shelfmark: R 909/M
!!!SMS-shelfwork: 004 G
!!!SMS-variant:
!!!SMS-altvar:
!!!NIFC-rismSourceID: 1001099305
!!!NIFC-islandoraID:
!!!URL-pdf-islandora:
!!!URL-scan:
!!!ONB-nifc: UWAGA: numeracja plików 001-005 zgodna z numeracją Raud w źródle
!!!AIN: 1 cello 2 clars 1 cor 2 empty 1 fagot 1 flt 1 oboe 1 tromp 2 tromt 1 viola 2 violn 1 vox
!!!key:
**kern	**dynam	**kern	**dynam	**kern	**dynam	**kern	**text	**text	**dynam	**kern	**dynam	**kern	**dynam	**kern	**dynam	**kern	**kern	**dynam	**kern	**dynam	**kern	**dynam	**kern	**kern	**kern	**kern	**kern	**kern
*part16	*part16	*part15	*part15	*part14	*part14	*part14	*part14	*part14	*part14	*part13	*part13	*part12	*part12	*part11	*part11	*part10	*part9	*part9	*part8	*part8	*part7	*part7	*part6	*part5	*part4	*part3	*part2	*part1
*staff17	*	*staff16	*	*staff15	*	*staff14	*staff14	*staff14	*	*staff13	*	*staff12	*	*staff11	*	*staff10	*staff9	*	*staff8	*	*staff7	*	*staff6	*staff5	*staff4	*staff3	*staff2	*staff1
*Iempty	*	*Icello	*	*Ivox	*	*Ivox	*	*	*	*Iviola	*	*Ivioln	*	*Ivioln	*	*Iempty	*Itromt	*	*Itromt	*	*Itromp	*	*Icor	*Ifagot	*Iclars	*Iclars	*Ioboe	*Iflt
*I"Baſso	*	*I"Cello	*	*I"Chór	*	*I"Chór	*	*	*	*I"Viola	*	*I"Violino II	*	*I"Violino I	*	*I"Cassa	*I"Trombon 3	*	*I"Tromboni 1/2	*	*I"Trombi 1/2 F	*	*I"Corni 1/2 F	*I"Fagotti	*I"Clarinetto 2	*I"Clarinetto I	*I"Oboa	*I"Flauto
*I'cb	*	*I'vlc	*	*coro	*	*I'coro	*	*	*	*I'vla	*	*I'vl 2	*	*I'vl 1	*	*I'cassa	*I'trb 3	*	*I'trb 1 and 2	*	*I'tr 1 and 2	*	*I'cor 1 and 2	*I'fag	*I'cl 2	*I'cl 1	*I'ob	*I'fl
*clefF4	*	*clefF4	*	*clefF4	*	*clefG2	*	*	*	*clefC3	*	*clefG2	*	*clefG2	*	*clefF4	*clefF4	*	*clefF4	*	*clefG2	*	*clefG2	*clefF4	*clefG2	*clefG2	*clefG2	*clefG2
*ITrd0c0	*	*	*	*	*	*	*	*	*	*	*	*	*	*	*	*	*	*	*	*	*ITrd-3c-5	*	*ITrd4c7	*	*ITrd1c2	*ITrd1c2	*	*
*k[f#]	*	*k[f#]	*	*k[f#]	*	*k[f#]	*	*	*	*k[f#]	*	*k[f#]	*	*k[f#]	*	*	*k[f#]	*	*k[f#]	*	*k[f#]	*	*	*k[f#]	*k[f#]	*k[f#]	*k[f#]	*k[f#]
*G:	*	*G:	*	*G:	*	*G:	*	*	*	*G:	*	*G:	*	*G:	*	*	*G:	*	*G:	*	*G:	*	*	*G:	*G:	*G:	*G:	*G:
*M4/4	*	*M4/4	*	*M4/4	*	*M4/4	*	*	*	*M4/4	*	*M4/4	*	*M4/4	*	*M4/4	*M4/4	*	*M4/4	*	*M4/4	*	*M4/4	*M4/4	*M4/4	*M4/4	*M4/4	*M4/4
*met(c)	*	*met(c)	*	*met(c)	*	*met(c)	*	*	*	*met(c)	*	*met(c)	*	*met(c)	*	*met(c)	*met(c)	*	*met(c)	*	*met(c)	*	*met(c)	*met(c)	*met(c)	*met(c)	*met(c)	*met(c)
*>[A,B,B1,B,B2]	*	*>[A,B,B1,B,B2]	*	*>[A,B,B1,B,B2]	*	*>[A,B,B1,B,B2]	*	*	*	*>[A,B,B1,B,B2]	*	*>[A,B,B1,B,B2]	*	*>[A,B,B1,B,B2]	*	*>[A,B,B1,B,B2]	*>[A,B,B1,B,B2]	*	*>[A,B,B1,B,B2]	*	*>[A,B,B1,B,B2]	*	*>[A,B,B1,B,B2]	*>[A,B,B1,B,B2]	*>[A,B,B1,B,B2]	*>[A,B,B1,B,B2]	*>[A,B,B1,B,B2]	*>[A,B,B1,B,B2]
=1	=1	=1	=1	=1	=1	=1	=1	=1	=1	=1	=1	=1	=1	=1	=1	=1	=1	=1	=1	=1	=1	=1	=1	=1	=1	=1	=1	=1
*>A	*	*>A	*	*>A	*	*>A	*	*	*	*>A	*	*>A	*	*>A	*	*>A	*>A	*	*>A	*	*>A	*	*>A	*>A	*>A	*>A	*>A	*>A
*2\right	*	*2\right	*	*	*	*	*	*	*	*tremolo	*	*tremolo	*	*tremolo	*	*	*	*	*	*	*	*	*	*	*	*	*	*
*tremolo	*	*tremolo	*	*	*	*	*	*	*	*	*	*	*	*	*	*	*	*	*	*	*	*	*	*	*	*	*	*
!	!	!	!	!LO:TX:a:t=P:problem=w źródle podpis partii - "Chór" zapisany tylko jednokrotnie, przed dwoma pięcioliniami tej partii	!	!	!	!	!	!	!	!	!	!	!	!	!	!	!	!	!	!	!	!	!	!	!	!LO:TX:a:t=Allegro
!	!	!	!	!	!	!	!	!	!	!	!	!	!	!LO:TX:a:t=Allegro	!	!	!	!	!	!	!	!	!	!	!	!	!	!LO:TX:a:t=Rauda 4.ta
!	!	!	!	!	!	!	!	!	!	!	!	!	!	!	!	!	!	!	!	!	!LO:TX:a:t=P:problem=w źródle brak znaków przykluczowych	!	!	!	!	!	!	!LO:TX:a:i:t=N 4:color=red
!	!LO:DY:b:rj	!	!LO:DY:b:rj	!	!	!	!	!	!	!	!LO:DY:b:rj	!	!LO:DY:b:rj	!	!LO:DY:b:rj	!	!	!	!	!	!	!	!	!	!	!	!	!LO:TX:a:i:t=N 8:color=grey
8GG/L	p	8G\L	p	4r@	.	1ryy	.	.	.	8B/L	p	8d/L	p	8g/L	p	1ryy	1ryy	.	1ryy	.	1ryy	.	1ryy	1ryy	1ryy	1ryy	1ryy	1ryy
8GG/	.	8G\	.	.	.	.	.	.	.	8B/	.	8d/	.	8g/	.	.	.	.	.	.	.	.	.	.	.	.	.	.
8GG/	.	8G\	.	4r@	.	.	.	.	.	8B/	.	8d/	.	8g/	.	.	.	.	.	.	.	.	.	.	.	.	.	.
8GG/J	.	8G\J	.	.	.	.	.	.	.	8B/J	.	8d/J	.	8g/J	.	.	.	.	.	.	.	.	.	.	.	.	.	.
8GG/L	.	8G\L	.	4r@	.	.	.	.	.	8B/L	.	8d/L	.	8g/L	.	.	.	.	.	.	.	.	.	.	.	.	.	.
8GG/	.	8G\	.	.	.	.	.	.	.	8B/	.	8d/	.	8g/	.	.	.	.	.	.	.	.	.	.	.	.	.	.
8GG/	.	8G\	.	8r@	.	.	.	.	.	8B/	.	8d/	.	8g/	.	.	.	.	.	.	.	.	.	.	.	.	.	.
8GG/J	.	8G\J	.	8D@	.	.	.	.	.	8B/J	.	8d/J	.	8g/J	.	.	.	.	.	.	.	.	.	.	.	.	.	.
=2!|:	=2!|:	=2!|:	=2!|:	=2!|:	=2!|:	=2!|:	=2!|:	=2!|:	=2!|:	=2!|:	=2!|:	=2!|:	=2!|:	=2!|:	=2!|:	=2!|:	=2!|:	=2!|:	=2!|:	=2!|:	=2!|:	=2!|:	=2!|:	=2!|:	=2!|:	=2!|:	=2!|:	=2!|:
*>B	*	*>B	*	*>B	*	*>B	*	*	*	*>B	*	*>B	*	*>B	*	*>B	*>B	*	*>B	*	*>B	*	*>B	*>B	*>B	*>B	*>B	*>B
8GG/L	.	8G\L	.	4G@	.	1ryy	.	.	.	8B/L	.	8d/L	.	8g/L	.	1ryy	1ryy	.	1ryy	.	1ryy	.	1ryy	1ryy	1ryy	1ryy	1ryy	1ryy
8GG/	.	8G\	.	.	.	.	.	.	.	8B/	.	8d/	.	8g/	.	.	.	.	.	.	.	.	.	.	.	.	.	.
8GG/	.	8G\	.	4D@	.	.	.	.	.	8B/	.	8d/	.	8g/	.	.	.	.	.	.	.	.	.	.	.	.	.	.
8GG/J	.	8G\J	.	.	.	.	.	.	.	8B/J	.	8d/J	.	8g/J	.	.	.	.	.	.	.	.	.	.	.	.	.	.
8GG/L	.	8G\L	.	4.BB\@	.	.	.	.	.	8B/L	.	8d/L	.	8g/L	.	.	.	.	.	.	.	.	.	.	.	.	.	.
8GG/	.	8G\	.	.	.	.	.	.	.	8B/	.	8d/	.	8g/	.	.	.	.	.	.	.	.	.	.	.	.	.	.
8GG/	.	8G\	.	.	.	.	.	.	.	8B/	.	8d/	.	8g/	.	.	.	.	.	.	.	.	.	.	.	.	.	.
8GG/J	.	8G\J	.	8D@	.	.	.	.	.	8B/J	.	8d/J	.	8g/J	.	.	.	.	.	.	.	.	.	.	.	.	.	.
!!LO:PB:g=original
=3	=3	=3	=3	=3	=3	=3	=3	=3	=3	=3	=3	=3	=3	=3	=3	=3	=3	=3	=3	=3	=3	=3	=3	=3	=3	=3	=3	=3
*Xtremolo	*	*	*	*	*	*	*	*	*	*Xtremolo	*	*Xtremolo	*	*	*	*	*	*	*	*	*	*	*	*	*	*	*	*
8G\L	.	8G\L	.	4G@	.	1ryy	.	.	.	8B\L	.	8d/L	.	8g/L	.	1ryy	1ryy	.	1ryy	.	1ryy	.	1ryy	1ryy	1ryy	1ryy	1ryy	1ryy
8G\J	.	8G\J	.	.	.	.	.	.	.	8B\	.	8d/	.	8g/J	.	.	.	.	.	.	.	.	.	.	.	.	.	.
8D\L	.	8A\L	.	8.A@	.	.	.	.	.	8d\	.	8f#/	.	8a 8f#/L	.	.	.	.	.	.	.	.	.	.	.	.	.	.
8D\J	.	8A\J	.	.	.	.	.	.	.	8d\J	.	8f#/J	.	8a 8f#/J	.	.	.	.	.	.	.	.	.	.	.	.	.	.
.	.	.	.	16A@	.	.	.	.	.	.	.	.	.	.	.	.	.	.	.	.	.	.	.	.	.	.	.	.
*	*	*	*	*	*	*	*	*	*	*2\right	*	*	*	*	*	*	*	*	*	*	*	*	*	*	*	*	*	*
*	*	*	*	*	*	*	*	*	*	*tremolo	*	*tremolo	*	*Xtremolo	*	*	*	*	*	*	*	*	*	*	*	*	*	*
8G\L	.	8G\L	.	4B@	.	.	.	.	.	8d\L	.	8g/L	.	8b\L	.	.	.	.	.	.	.	.	.	.	.	.	.	.
8G\J	.	8G\J	.	.	.	.	.	.	.	8d\	.	8g/	.	8b\J	.	.	.	.	.	.	.	.	.	.	.	.	.	.
*	*	*Xtremolo	*	*	*	*	*	*	*	*	*	*	*	*	*	*	*	*	*	*	*	*	*	*	*	*	*	*
8B\L	.	8B\L	.	4G@	.	.	.	.	.	8d\	.	8g/	.	8g\L	.	.	.	.	.	.	.	.	.	.	.	.	.	.
8G\J	.	8G\J	.	.	.	.	.	.	.	8d\J	.	8g/J	.	8b\J	.	.	.	.	.	.	.	.	.	.	.	.	.	.
*	*	*	*	*	*	*	*	*	*	*	*	*Xtremolo	*	*	*	*	*	*	*	*	*	*	*	*	*	*	*	*
=4	=4	=4	=4	=4	=4	=4	=4	=4	=4	=4	=4	=4	=4	=4	=4	=4	=4	=4	=4	=4	=4	=4	=4	=4	=4	=4	=4	=4
8D\L	.	8d\L	.	4A@	.	1ryy	.	.	.	8d\L	.	8f#/L	.	8a/L	.	1ryy	1ryy	.	1ryy	.	1ryy	.	1ryy	1ryy	1ryy	1ryy	1ryy	1ryy
8D\J	.	8d\	.	.	.	.	.	.	.	8d\	.	8f#/	.	8a/	.	.	.	.	.	.	.	.	.	.	.	.	.	.
8F#\L	.	8F#\	.	8AL@	.	.	.	.	.	8d\	.	8f#/	.	8a/	.	.	.	.	.	.	.	.	.	.	.	.	.	.
8G\J	.	8G\J	.	8GJ@	.	.	.	.	.	8e\J	.	8e/J	.	8g/J	.	.	.	.	.	.	.	.	.	.	.	.	.	.
*	*	*	*	*	*	*	*	*	*	*Xtremolo	*	*	*	*	*	*	*	*	*	*	*	*	*	*	*	*	*	*
8A\L	.	8A\L	.	4F#@	.	.	.	.	.	8A/L	.	8d/L	.	8f#/L	.	.	.	.	.	.	.	.	.	.	.	.	.	.
8A\J	.	8A\	.	.	.	.	.	.	.	8A/	.	8d/	.	8f#/	.	.	.	.	.	.	.	.	.	.	.	.	.	.
8AA/L	.	8A\	.	4E@	.	.	.	.	.	8G/	.	8c#X/	.	8e/	.	.	.	.	.	.	.	.	.	.	.	.	.	.
8AA/J	.	8A\J	.	.	.	.	.	.	.	8G/J	.	8c#/J	.	8e/J	.	.	.	.	.	.	.	.	.	.	.	.	.	.
=5	=5	=5	=5	=5	=5	=5	=5	=5	=5	=5	=5	=5	=5	=5	=5	=5	=5	=5	=5	=5	=5	=5	=5	=5	=5	=5	=5	=5
*	*	*tremolo	*	*	*	*	*	*	*	*tremolo	*	*tremolo	*	*	*	*	*	*	*	*	*	*	*	*	*	*	*	*
!	!	!	!	!	!LO:DY:b:rj:t=fo	!	!	!	!	!	!	!	!	!	!	!LO:TX:a:t=Piatti Solo	!	!	!LO:TX:a:t=a dué	!	!LO:TX:a:t=à duè	!	!	!	!	!	!	!
!	!	!	!	!	!	!	!	!	!LO:DY:b:rj:t=fo	!LO:TX:b:t=..	!	!	!	!	!	!	!	!LO:DY:b:rj:t=fo	!	!LO:DY:b:rj:t=fo	!	!LO:DY:b:rj:t=fo	!	!	!	!	!	!
8D\L	.	8D\L	.	4d\	f	4dd\	Tam	Tam	f	8F#'/L	.	8aL 8d'/	.	8f#/L	.	4E\	4D/	f	4d\	f	4dd/	f	1ryy	1ryy	1ryy	1ryy	1ryy	1ryy
8D\J	.	8D\J	.	.	.	.	.	.	.	8F#'/J	.	8aJ 8d'/	.	8f#/	.	.	.	.	.	.	.	.	.	.	.	.	.	.
!	!	!	!	!	!	!	!	!	!	!LO:TX:b:t=..	!	!	!	!	!	!	!	!	!	!	!	!	!	!	!	!	!	!
8D\L	.	8D\L	.	8.A\	.	8.a/	oj-	Jo-	.	8F#'/L	.	8aL 8d/	.	8f#/	.	4r	8.AA/L	.	8.A\L	.	8.a/L	.	.	.	.	.	.	.
8D\J	.	8D\J	.	.	.	.	.	.	.	8F#'/J	.	8aJ 8d/	.	8f#/J	.	.	.	.	.	.	.	.	.	.	.	.	.	.
.	.	.	.	16G\	.	16g/	-ców	-dsy	.	.	.	.	.	.	.	.	16GG/Jk	.	16G\Jk	.	16g/Jk	.	.	.	.	.	.	.
8D\L	.	8D\L	.	8.F#\	.	8.f#/	na-	bę-	.	8F#/L	.	8aL 8d/	.	8f#/L	.	4r	8.FF#/L	.	8.F#\L	.	8.f#X/L	.	.	.	.	.	.	.
8D\J	.	8D\J	.	.	.	.	.	.	.	8F#/J	.	8aJ 8d/	.	8f#/	.	.	.	.	.	.	.	.	.	.	.	.	.	.
.	.	.	.	16E\	.	16e/	-szych	-dzie	.	.	.	.	.	.	.	.	16EE/Jk	.	16E\Jk	.	16e/Jk	.	.	.	.	.	.	.
!	!	!	!	!	!	!	!	!	!	!	!	!	!	!	!	!LO:TX:t=P:problem=kółeczko nad nutą	!	!	!	!	!	!	!	!	!	!	!	!
!	!	!	!	!	!	!	!	!	!	!	!	!	!	!	!	!LO:TX:a:t=Caſsa Solo	!	!	!	!	!	!	!	!	!	!	!	!
8D\L	.	8D\L	.	4D\	.	4d/	świat	gnał	.	8F#/L	.	8aL 8d/	.	8f#/	.	4C\	4DD/	.	4D\	.	4d/	.	.	.	.	.	.	.
8D\J	.	8D\J	.	.	.	.	.	.	.	8F#/J	.	8aJ 8d/	.	8f#/J	.	.	.	.	.	.	.	.	.	.	.	.	.	.
=6	=6	=6	=6	=6	=6	=6	=6	=6	=6	=6	=6	=6	=6	=6	=6	=6	=6	=6	=6	=6	=6	=6	=6	=6	=6	=6	=6	=6
8GG/L	.	8G\L	.	1ryy	.	1ryy	.	.	.	8B/L	.	8d/L	.	8g/L	.	1ryy	1ryy	.	1ryy	.	1ryy	.	1ryy	1ryy	1ryy	1ryy	1ryy	1ryy
8GG/J	.	8G\J	.	.	.	.	.	.	.	8B/J	.	8d/J	.	8g/	.	.	.	.	.	.	.	.	.	.	.	.	.	.
8GG/L	.	8G\L	.	.	.	.	.	.	.	8B/L	.	8d/L	.	8g/	.	.	.	.	.	.	.	.	.	.	.	.	.	.
8GG/J	.	8G\J	.	.	.	.	.	.	.	8B/J	.	8d/J	.	8g/J	.	.	.	.	.	.	.	.	.	.	.	.	.	.
*tremolo	*	*	*	*	*	*	*	*	*	*	*	*	*	*tremolo	*	*	*	*	*	*	*	*	*	*	*	*	*	*
8GG/L	.	8G\L	.	.	.	.	.	.	.	8B/L	.	8d/L	.	8g/L	.	.	.	.	.	.	.	.	.	.	.	.	.	.
8GG/	.	8G\	.	.	.	.	.	.	.	8B/	.	8d/	.	8g/	.	.	.	.	.	.	.	.	.	.	.	.	.	.
8GG/	.	8G\	.	.	.	.	.	.	.	8B/	.	8d/	.	8g/	.	.	.	.	.	.	.	.	.	.	.	.	.	.
8GG/J	.	8G\J	.	.	.	.	.	.	.	8B/J	.	8d/J	.	8g/J	.	.	.	.	.	.	.	.	.	.	.	.	.	.
*Xtremolo	*	*Xtremolo	*	*	*	*	*	*	*	*Xtremolo	*	*Xtremolo	*	*Xtremolo	*	*	*	*	*	*	*	*	*	*	*	*	*	*
=7	=7	=7	=7	=7	=7	=7	=7	=7	=7	=7	=7	=7	=7	=7	=7	=7	=7	=7	=7	=7	=7	=7	=7	=7	=7	=7	=7	=7
8G\L	.	8G\L	.	1ryy	.	1ryy	.	.	.	8B\L	.	8d/L	.	8g/L	.	1ryy	1ryy	.	1ryy	.	1ryy	.	1ryy	1ryy	1ryy	1ryy	1ryy	1ryy
8G\J	.	8G\	.	.	.	.	.	.	.	8B\	.	8d/	.	8g/	.	.	.	.	.	.	.	.	.	.	.	.	.	.
8D\L	.	8A\	.	.	.	.	.	.	.	8d\	.	8f#/	.	8a 8f#/	.	.	.	.	.	.	.	.	.	.	.	.	.	.
8D\J	.	8A\J	.	.	.	.	.	.	.	8d\J	.	8f#/J	.	8aJ 8f#/	.	.	.	.	.	.	.	.	.	.	.	.	.	.
*	*	*	*	*	*	*	*	*	*	*tremolo	*	*tremolo	*	*	*	*	*	*	*	*	*	*	*	*	*	*	*	*
8G\L	.	8G\L	.	.	.	.	.	.	.	8d\L	.	8g/L	.	8b\L	.	.	.	.	.	.	.	.	.	.	.	.	.	.
8G\J	.	8G\	.	.	.	.	.	.	.	8d\	.	8g/	.	8b\	.	.	.	.	.	.	.	.	.	.	.	.	.	.
8B\L	.	8B\	.	.	.	.	.	.	.	8d\	.	8g/	.	8g\	.	.	.	.	.	.	.	.	.	.	.	.	.	.
8G\J	.	8G\J	.	.	.	.	.	.	.	8d\J	.	8g/J	.	8b\J	.	.	.	.	.	.	.	.	.	.	.	.	.	.
!!LO:PB:g=original
=8	=8	=8	=8	=8	=8	=8	=8	=8	=8	=8	=8	=8	=8	=8	=8	=8	=8	=8	=8	=8	=8	=8	=8	=8	=8	=8	=8	=8
*tremolo	*	*	*	*	*	*	*	*	*	*Xtremolo	*	*Xtremolo	*	*	*	*	*	*	*	*	*	*	*	*	*	*	*	*
8D\L	.	8A\L	.	1ryy	.	1ryy	.	.	.	8d\L	.	8f#/L	.	8a/L	.	1ryy	1ryy	.	1ryy	.	1ryy	.	1ryy	1ryy	1ryy	1ryy	1ryy	1ryy
8D\J	.	8A\J	.	.	.	.	.	.	.	8d\J	.	8f#/J	.	8a/J	.	.	.	.	.	.	.	.	.	.	.	.	.	.
8D\L	.	8A\L	.	.	.	.	.	.	.	8d\L	.	8f#/L	.	8a/L	.	.	.	.	.	.	.	.	.	.	.	.	.	.
8D\J	.	8A\J	.	.	.	.	.	.	.	8d\J	.	8e/J	.	8g/J	.	.	.	.	.	.	.	.	.	.	.	.	.	.
8D\L	.	8D\L	.	.	.	.	.	.	.	8d\L	.	8f#/L	.	8f#/L	.	.	.	.	.	.	.	.	.	.	.	.	.	.
8D\J	.	8D\J	.	.	.	.	.	.	.	8d\J	.	8e/J	.	8g/J	.	.	.	.	.	.	.	.	.	.	.	.	.	.
8GG/L	.	8GG/L	.	.	.	.	.	.	.	8d\L	.	8f#/L	.	8a/L	.	.	.	.	.	.	.	.	.	.	.	.	.	.
8GG/J	.	8GG/J	.	.	.	.	.	.	.	8d\J	.	8fn/J	.	8b/J	.	.	.	.	.	.	.	.	.	.	.	.	.	.
=9	=9	=9	=9	=9	=9	=9	=9	=9	=9	=9	=9	=9	=9	=9	=9	=9	=9	=9	=9	=9	=9	=9	=9	=9	=9	=9	=9	=9
*	*	*tremolo	*	*	*	*	*	*	*	*tremolo	*	*	*	*	*	*	*	*	*	*	*	*	*	*	*	*	*	*
!	!	!	!	!	!LO:DY:b:rj:t=fo	!	!	!	!LO:DY:b:rj:t=fo	!	!	!	!	!	!	!LO:TX:a:t=Piatti	!	!LO:DY:b:rj:t=fo	!	!LO:DY:b:rj:t=fo	!	!LO:DY:b:rj:t=fo	!	!	!	!	!	!
8C/L	.	8C/L	.	4c\	f	4cc\	Swych	Sto	f	8c\L	.	8e/L	.	8cc\L	.	4E\	4C/	f	4c\	f	4cc/	f	1ryy	1ryy	1ryy	1ryy	1ryy	1ryy
8C/J	.	8C/J	.	.	.	.	.	.	.	8c\J	.	8e/J	.	8cc\J	.	.	.	.	.	.	.	.	.	.	.	.	.	.
8C/L	.	8C/L	.	8.G\	.	8.g/	nie	łu-	.	8c\L	.	8e/L	.	8cc\L	.	4r	8.GG/L	.	8.G\L	.	8.g/L	.	.	.	.	.	.	.
8C/J	.	8C/J	.	.	.	.	.	.	.	8c\J	.	8e/J	.	8cc\J	.	.	.	.	.	.	.	.	.	.	.	.	.	.
.	.	.	.	16Fn\	.	16fn/	prze-	-ków	.	.	.	.	.	.	.	.	16FFn/Jk	.	16Fn\Jk	.	16fny/Jk	.	.	.	.	.	.	.
8C/L	.	8C/L	.	8.E\	.	8.e/	-ży-	ty-	.	8c\L	.	8e/L	.	8cc\L	.	4r	8.EE/L	.	8.E\L	.	8.e/L	.	.	.	.	.	.	.
8C/J	.	8C/J	.	.	.	.	.	.	.	8c\J	.	8e/J	.	8cc\J	.	.	.	.	.	.	.	.	.	.	.	.	.	.
.	.	.	.	16D\	.	16d/	-je	-siąc	.	.	.	.	.	.	.	.	16DD/Jk	.	16D\Jk	.	16d/Jk	.	.	.	.	.	.	.
!	!	!	!	!	!	!	!	!	!	!	!	!	!	!	!	!LO:TX:a:t=Cassa	!	!	!	!	!	!	!	!	!	!	!	!
8C/L	.	8C/L	.	4C\	.	4c/	lat	strzał	.	8c\L	.	8e/L	.	8cc\L	.	4C\	4CC/	.	4C\	.	4c/	.	.	.	.	.	.	.
8C/J	.	8C/J	.	.	.	.	.	.	.	8c\J	.	8e/J	.	8cc\J	.	.	.	.	.	.	.	.	.	.	.	.	.	.
*	*	*Xtremolo	*	*	*	*	*	*	*	*	*	*	*	*	*	*	*	*	*	*	*	*	*	*	*	*	*	*
=10	=10	=10	=10	=10	=10	=10	=10	=10	=10	=10	=10	=10	=10	=10	=10	=10	=10	=10	=10	=10	=10	=10	=10	=10	=10	=10	=10	=10
8AA/L	.	8AA/L	.	1ryy	.	1ryy	.	.	.	8E/L	.	8c/L	.	8e/L	.	1ryy	1ryy	.	1ryy	.	1ryy	.	1ryy	1ryy	1ryy	1ryy	1ryy	1ryy
8AA/J	.	8AA/J	.	.	.	.	.	.	.	8E/J	.	8c/J	.	8e/J	.	.	.	.	.	.	.	.	.	.	.	.	.	.
8BB/L	.	8BB/L	.	.	.	.	.	.	.	8E/L	.	8d/L	.	8g#X/L	.	.	.	.	.	.	.	.	.	.	.	.	.	.
8BB/J	.	8BB/J	.	.	.	.	.	.	.	8E/J	.	8d/J	.	8g#/J	.	.	.	.	.	.	.	.	.	.	.	.	.	.
*	*	*	*	*	*	*	*	*	*	*	*	*tremolo	*	*	*	*	*	*	*	*	*	*	*	*	*	*	*	*
8C/L	.	8C/L	.	.	.	.	.	.	.	8A/L	.	8e/L	.	8a/L	.	.	.	.	.	.	.	.	.	.	.	.	.	.
8C/J	.	8C/J	.	.	.	.	.	.	.	8A/	.	8e/	.	8a/J	.	.	.	.	.	.	.	.	.	.	.	.	.	.
8C#X/L	.	8C#X/L	.	.	.	.	.	.	.	8A/	.	8e/	.	8gn/L	.	.	.	.	.	.	.	.	.	.	.	.	.	.
8C#/J	.	8C#/J	.	.	.	.	.	.	.	8A/J	.	8e/J	.	8g/J	.	.	.	.	.	.	.	.	.	.	.	.	.	.
=11	=11	=11	=11	=11	=11	=11	=11	=11	=11	=11	=11	=11	=11	=11	=11	=11	=11	=11	=11	=11	=11	=11	=11	=11	=11	=11	=11	=11
8D\L	.	8D\L	.	1ryy	.	1ryy	.	.	.	8A/L	.	8d/L	.	8f#/L	.	1ryy	1ryy	.	1ryy	.	1ryy	.	1ryy	1ryy	1ryy	1ryy	1ryy	1ryy
8D\J	.	8D\J	.	.	.	.	.	.	.	8A/J	.	8d/J	.	8f#/J	.	.	.	.	.	.	.	.	.	.	.	.	.	.
8Cn\L	.	8Cn\L	.	.	.	.	.	.	.	8A/L	.	8f#/L	.	8a/L	.	.	.	.	.	.	.	.	.	.	.	.	.	.
8C\J	.	8C\J	.	.	.	.	.	.	.	8A/J	.	8f#/J	.	8a/J	.	.	.	.	.	.	.	.	.	.	.	.	.	.
8BB\L	.	8BB\L	.	.	.	.	.	.	.	8d\L	.	8g/L	.	8g/L	.	.	.	.	.	.	.	.	.	.	.	.	.	.
8BB\J	.	8BB\J	.	.	.	.	.	.	.	8d\J	.	8g/J	.	8g/J	.	.	.	.	.	.	.	.	.	.	.	.	.	.
8C\L	.	8C\L	.	.	.	.	.	.	.	8d\L	.	8d/L	.	8f#/L	.	.	.	.	.	.	.	.	.	.	.	.	.	.
8C\J	.	8C\J	.	.	.	.	.	.	.	8d\J	.	8d/J	.	8f#/J	.	.	.	.	.	.	.	.	.	.	.	.	.	.
*	*	*	*	*	*	*	*	*	*	*Xtremolo	*	*	*	*	*	*	*	*	*	*	*	*	*	*	*	*	*	*
=12	=12	=12	=12	=12	=12	=12	=12	=12	=12	=12	=12	=12	=12	=12	=12	=12	=12	=12	=12	=12	=12	=12	=12	=12	=12	=12	=12	=12
8BB/L	.	8BB\L	.	1ryy	.	1ryy	.	.	.	8D/L	.	8d/L	.	8g/L	.	1ryy	1ryy	.	1ryy	.	1ryy	.	1ryy	1ryy	1ryy	1ryy	1ryy	1ryy
8BB/J	.	8BB\J	.	.	.	.	.	.	.	8D/J	.	8d/J	.	8g/J	.	.	.	.	.	.	.	.	.	.	.	.	.	.
8FF#/L	.	8FF#/L	.	.	.	.	.	.	.	8F#/L	.	8d/L	.	8a/L	.	.	.	.	.	.	.	.	.	.	.	.	.	.
8FF#/J	.	8FF#/J	.	.	.	.	.	.	.	8F#/J	.	8d/J	.	8a/J	.	.	.	.	.	.	.	.	.	.	.	.	.	.
8GG/L	.	8GG/L	.	.	.	.	.	.	.	8G/L	.	8d/L	.	8b\L	.	.	.	.	.	.	.	.	.	.	.	.	.	.
8GG/J	.	8GG/J	.	.	.	.	.	.	.	8G/J	.	8d/J	.	8b\J	.	.	.	.	.	.	.	.	.	.	.	.	.	.
8BB/L	.	8BB/L	.	.	.	.	.	.	.	8G/L	.	8d/L	.	8g\L	.	.	.	.	.	.	.	.	.	.	.	.	.	.
8GG/J	.	8GG/J	.	.	.	.	.	.	.	8G/J	.	8d/J	.	8g\J	.	.	.	.	.	.	.	.	.	.	.	.	.	.
!!LO:PB:g=original
=13	=13	=13	=13	=13	=13	=13	=13	=13	=13	=13	=13	=13	=13	=13	=13	=13	=13	=13	=13	=13	=13	=13	=13	=13	=13	=13	=13	=13
*Xtremolo	*	*	*	*	*	*	*	*	*	*	*	*Xtremolo	*	*	*	*	*	*	*	*	*	*	*	*	*	*	*	*
*	*	*	*	*^	*	*^	*	*	*	*	*	*	*	*	*	*	*	*	*	*	*	*	*	*	*	*	*	*
!	!	!	!	!	!	!	!	!	!	!	!LO:DY:b:rj:t=fo	!	!	!	!	!	!	!LO:TX:a:t=Piatti	!	!LO:DY:b:rj:t=fo	!	!LO:DY:b:rj:t=fo	!	!LO:DY:b:rj:t=fo	!	!	!	!	!	!
8D\L	.	8D\L	.	8d/	4d\	.	8dd/	4dd\	Bo	Go-	f	8F#/L	.	8a/L	.	8dd\L	.	4E\	4D/	f	4d\	f	4dd/	f	1ryy	1ryy	1ryy	1ryy	1ryy	1ryy
8D\J	.	8D\J	.	8d/	.	.	8dd/	.	.	-nie	.	8F#/J	.	8a/J	.	8dd\J	.	.	.	.	.	.	.	.	.	.	.	.	.	.
8D\L	.	8D\L	.	8.A\	4ryy	.	8.a/	4ryy	lo-	wro-	.	8F#/L	.	8a/L	.	8dd\L	.	4r	8.AA/L	.	8.A\L	.	8.a/L	.	.	.	.	.	.	.
8D\J	.	8D\J	.	.	.	.	.	.	.	.	.	8F#/J	.	8a/J	.	8dd\J	.	.	.	.	.	.	.	.	.	.	.	.	.	.
.	.	.	.	16G\	.	.	16g/	.	-chów	-gów	.	.	.	.	.	.	.	.	16GG/Jk	.	16G\Jk	.	16g/Jk	.	.	.	.	.	.	.
8D\L	.	8D\L	.	8.F#\	2ryy	.	8.f#/	2ryy	nie	bę-	.	8F#/L	.	8a/L	.	8dd\L	.	4r	8.FF#/L	.	8.F#\L	.	4f#X/	.	.	.	.	.	.	.
8D\J	.	8D\J	.	.	.	.	.	.	.	.	.	8F#/J	.	8a/J	.	8dd\J	.	.	.	.	.	.	.	.	.	.	.	.	.	.
.	.	.	.	16E\	.	.	16e/	.	ma	-dzie	.	.	.	.	.	.	.	.	16EE/Jk	.	16E\Jk	.	.	.	.	.	.	.	.	.
!	!	!	!	!	!	!	!	!	!	!	!	!	!	!	!	!	!	!LO:TX:t=P:problem=kółeczko nad nutą	!	!	!	!	!	!	!	!	!	!	!	!
!	!	!	!	!	!	!	!	!	!	!	!	!	!	!	!	!	!	!LO:TX:a:t=cassa	!	!	!	!	!	!	!	!	!	!	!	!
8D\L	.	8D\L	.	4D\	.	.	4d/	.	tam	bił	.	8F#/L	.	8a/L	.	8dd\L	.	4C\	4DD/	.	4D\	.	4d/	.	.	.	.	.	.	.
8D\J	.	8D\J	.	.	.	.	.	.	.	.	.	8F#/J	.	8a/J	.	8dd\J	.	.	.	.	.	.	.	.	.	.	.	.	.	.
*	*	*	*	*v	*v	*	*	*	*	*	*	*	*	*	*	*	*	*	*	*	*	*	*	*	*	*	*	*	*	*
*	*	*	*	*	*	*v	*v	*	*	*	*	*	*	*	*	*	*	*	*	*	*	*	*	*	*	*	*	*	*
=14	=14	=14	=14	=14	=14	=14	=14	=14	=14	=14	=14	=14	=14	=14	=14	=14	=14	=14	=14	=14	=14	=14	=14	=14	=14	=14	=14	=14
8GG/L	.	8G\L	.	1ryy	.	1ryy	.	.	.	8B/L	.	8d/L	.	8g/L	.	1ryy	1ryy	.	1ryy	.	1ryy	.	1ryy	1ryy	1ryy	1ryy	1ryy	1ryy
8GG/J	.	8G\J	.	.	.	.	.	.	.	8B/J	.	8d/J	.	8g/J	.	.	.	.	.	.	.	.	.	.	.	.	.	.
8GG/L	.	8G\L	.	.	.	.	.	.	.	8B/L	.	8d/L	.	8g/L	.	.	.	.	.	.	.	.	.	.	.	.	.	.
8GG/J	.	8G\J	.	.	.	.	.	.	.	8B/J	.	8d/J	.	8g/J	.	.	.	.	.	.	.	.	.	.	.	.	.	.
*tremolo	*	*tremolo	*	*	*	*	*	*	*	*tremolo	*	*tremolo	*	*tremolo	*	*	*	*	*	*	*	*	*	*	*	*	*	*
8GG/L	.	8G\L	.	.	.	.	.	.	.	8B/L	.	8d/L	.	8g/L	.	.	.	.	.	.	.	.	.	.	.	.	.	.
8GG/	.	8G\	.	.	.	.	.	.	.	8B/	.	8d/	.	8g/	.	.	.	.	.	.	.	.	.	.	.	.	.	.
8GG/	.	8G\	.	.	.	.	.	.	.	8B/	.	8d/	.	8g/	.	.	.	.	.	.	.	.	.	.	.	.	.	.
8GG/J	.	8G\J	.	.	.	.	.	.	.	8B/J	.	8d/J	.	8g/J	.	.	.	.	.	.	.	.	.	.	.	.	.	.
*Xtremolo	*	*Xtremolo	*	*	*	*	*	*	*	*Xtremolo	*	*Xtremolo	*	*Xtremolo	*	*	*	*	*	*	*	*	*	*	*	*	*	*
=15	=15	=15	=15	=15	=15	=15	=15	=15	=15	=15	=15	=15	=15	=15	=15	=15	=15	=15	=15	=15	=15	=15	=15	=15	=15	=15	=15	=15
8G\L	.	8G\L	.	1ryy	.	1ryy	.	.	.	8B\L	.	8d/L	.	8g/L	.	1ryy	1ryy	.	1ryy	.	1ryy	.	1ryy	1ryy	1ryy	1ryy	1ryy	1ryy
8G\J	.	8G\J	.	.	.	.	.	.	.	8B\J	.	8d/J	.	8g/	.	.	.	.	.	.	.	.	.	.	.	.	.	.
8D\L	.	8A\L	.	.	.	.	.	.	.	8d\L	.	8f#/L	.	8a 8f#/	.	.	.	.	.	.	.	.	.	.	.	.	.	.
8D\J	.	8A\J	.	.	.	.	.	.	.	8d\J	.	8f#/J	.	8aJ 8f#/	.	.	.	.	.	.	.	.	.	.	.	.	.	.
*	*	*	*	*	*	*	*	*	*	*tremolo	*	*tremolo	*	*	*	*	*	*	*	*	*	*	*	*	*	*	*	*
8G\L	.	8G\L	.	.	.	.	.	.	.	8d\L	.	8g/L	.	8b\L	.	.	.	.	.	.	.	.	.	.	.	.	.	.
8G\	.	8G\	.	.	.	.	.	.	.	8d\	.	8g/	.	8b\	.	.	.	.	.	.	.	.	.	.	.	.	.	.
8B\	.	8B\	.	.	.	.	.	.	.	8d\	.	8g/	.	8g\	.	.	.	.	.	.	.	.	.	.	.	.	.	.
8G\J	.	8G\J	.	.	.	.	.	.	.	8d\J	.	8g/J	.	8b\J	.	.	.	.	.	.	.	.	.	.	.	.	.	.
=16	=16	=16	=16	=16	=16	=16	=16	=16	=16	=16	=16	=16	=16	=16	=16	=16	=16	=16	=16	=16	=16	=16	=16	=16	=16	=16	=16	=16
*tremolo	*	*tremolo	*	*	*	*	*	*	*	*	*	*	*	*tremolo	*	*	*	*	*	*	*	*	*	*	*	*	*	*
8C/L	.	8C/L	.	1ryy	.	1ryy	.	.	.	8A/L	.	8e/L	.	8a/L	.	1ryy	1ryy	.	1ryy	.	1ryy	.	1ryy	1ryy	1ryy	1ryy	1ryy	1ryy
8C/	.	8C/	.	.	.	.	.	.	.	8A/	.	8e/	.	8a/	.	.	.	.	.	.	.	.	.	.	.	.	.	.
8C/	.	8C/	.	.	.	.	.	.	.	8A/	.	8e/	.	8a/	.	.	.	.	.	.	.	.	.	.	.	.	.	.
8C/J	.	8C/J	.	.	.	.	.	.	.	8A/J	.	8e/J	.	8a/J	.	.	.	.	.	.	.	.	.	.	.	.	.	.
*	*	*	*	*	*	*	*	*	*	*	*	*Xtremolo	*	*	*	*	*	*	*	*	*	*	*	*	*	*	*	*
8D\L	.	8D\L	.	.	.	.	.	.	.	8A/L	.	8d/L	.	8f#/L	.	.	.	.	.	.	.	.	.	.	.	.	.	.
8D\	.	8D\	.	.	.	.	.	.	.	8A/	.	8d/	.	8f#/	.	.	.	.	.	.	.	.	.	.	.	.	.	.
8D\	.	8D\	.	.	.	.	.	.	.	8A/	.	8c/	.	8f#/	.	.	.	.	.	.	.	.	.	.	.	.	.	.
8D\J	.	8D\J	.	.	.	.	.	.	.	8A/J	.	8c/J	.	8f#/J	.	.	.	.	.	.	.	.	.	.	.	.	.	.
*	*	*Xtremolo	*	*	*	*	*	*	*	*Xtremolo	*	*	*	*Xtremolo	*	*	*	*	*	*	*	*	*	*	*	*	*	*
=17	=17	=17	=17	=17	=17	=17	=17	=17	=17	=17	=17	=17	=17	=17	=17	=17	=17	=17	=17	=17	=17	=17	=17	=17	=17	=17	=17	=17
!	!	!	!	!	!	!	!	!	!	!	!	!	!	!	!	!	!	!	!	!LO:DY:b:rj:t=fo	!	!LO:DY:b:rj:t=fo	!	!	!	!	!	!
8GG/	.	8GG/	.	4r	.	4r	.	.	.	8B/	.	8B/	.	8g/	.	1ryy	2r	.	2r	f	8r	f	1ryy	1ryy	1ryy	1ryy	1ryy	1ryy
8r	.	8r	.	.	.	.	.	.	.	8r	.	8r	.	8r	.	.	.	.	.	.	16g/LL	.	.	.	.	.	.	.
.	.	.	.	.	.	.	.	.	.	.	.	.	.	.	.	.	.	.	.	.	16g/JJ	.	.	.	.	.	.	.
!	!	!	!	!	!LO:DY:b:rj:t=fo	!	!	!	!LO:DY:b:rj:t=fo	!	!	!	!	!	!	!	!	!	!	!	!	!	!	!	!	!	!	!
4r	.	4r	.	8r	f	8r	.	.	f	4r	.	4r	.	4r	.	.	.	.	.	.	8g/L	.	.	.	.	.	.	.
*	*	*	*	*	*	*	*	*ij	*	*	*	*	*	*	*	*	*	*	*	*	*	*	*	*	*	*	*	*
.	.	.	.	8G\	.	8g/	ze	ze	.	.	.	.	.	.	.	.	.	.	.	.	8g/J	.	.	.	.	.	.	.
!	!	!	!	!	!	!	!	!	!LO:HP:a	!	!	!	!	!	!	!	!	!	!	!	!	!	!	!	!	!	!	!
2r	.	2r	.	4E\	.	4cc 4g/	swe-	swe-	>	2r	.	2r	.	2r	.	.	4E\	.	4c 4G\	.	4g/	.	.	.	.	.	.	.
.	.	.	.	8D\	.	8b 8g/	-mi	-mi	]	.	.	.	.	.	.	.	8D\L	.	8BL 8G\	.	4g/	.	.	.	.	.	.	.
.	.	.	.	8G\	.	8g/	ze	ze	.	.	.	.	.	.	.	.	8G\J	.	8G\J	.	.	.	.	.	.	.	.	.
!!LO:PB:g=original
=18	=18	=18	=18	=18	=18	=18	=18	=18	=18	=18	=18	=18	=18	=18	=18	=18	=18	=18	=18	=18	=18	=18	=18	=18	=18	=18	=18	=18
*	*	*	*	*^	*	*	*	*	*	*	*	*	*	*	*	*	*	*	*	*	*	*	*	*	*	*	*	*
1ryy	.	1ryy	.	4.G/	(>4C\	.	(>4ee 4cc\	swe-	swe-	.	1ryy	.	1ryy	.	1ryy	.	1ryy	4C/	.	4e 4c\	.	8g/L	.	1ryy	1ryy	1ryy	1ryy	1ryy	1ryy
.	.	.	.	.	.	.	.	.	.	.	.	.	.	.	.	.	.	.	.	.	.	16g/L	.	.	.	.	.	.	.
.	.	.	.	.	.	.	.	.	.	.	.	.	.	.	.	.	.	.	.	.	.	16g/JJ	.	.	.	.	.	.	.
.	.	.	.	.	8BB\)	.	8dd\)	.	.	.	.	.	.	.	.	.	.	4BB/	.	8d\L	.	8g/L	.	.	.	.	.	.	.
.	.	.	.	8G/	8G\	.	8b\	-mi	-mi	.	.	.	.	.	.	.	.	.	.	8B\J	.	8g/J	.	.	.	.	.	.	.
.	.	.	.	4D\	2ryy	.	4g/	bę-	bę-	.	.	.	.	.	.	.	.	4D\	.	4G\	.	8dd/L	.	.	.	.	.	.	.
.	.	.	.	.	.	.	.	.	.	.	.	.	.	.	.	.	.	.	.	.	.	16dd/L	.	.	.	.	.	.	.
.	.	.	.	.	.	.	.	.	.	.	.	.	.	.	.	.	.	.	.	.	.	16dd/JJ	.	.	.	.	.	.	.
.	.	.	.	4F# 4D\	.	.	4a/	-dzie	-dzie	.	.	.	.	.	.	.	.	4D\	.	4A 4F#\	.	8dd/L	.	.	.	.	.	.	.
*	*	*	*	*	*	*	*	*	*Xij	*	*	*	*	*	*	*	*	*	*	*	*	*	*	*	*	*	*	*	*
.	.	.	.	.	.	.	.	.	.	.	.	.	.	.	.	.	.	.	.	.	.	8dd/J	.	.	.	.	.	.	.
*	*	*	*	*v	*v	*	*	*	*	*	*	*	*	*	*	*	*	*	*	*	*	*	*	*	*	*	*	*	*
=19	=19	=19	=19	=19	=19	=19	=19	=19	=19	=19	=19	=19	=19	=19	=19	=19	=19	=19	=19	=19	=19	=19	=19	=19	=19	=19	=19	=19
*Xtremolo	*	*	*	*	*	*	*	*	*	*	*	*	*	*	*	*	*	*	*	*	*	*	*	*	*	*	*	*
8r	.	8r	.	4G 4GG\	.	4b\	tam	pił	.	8r	.	8r	.	8r	.	1ryy	4GG/	.	4B 4G\	.	8dd/L	.	1ryy	1ryy	1ryy	1ryy	1ryy	1ryy
16GG/LL	.	16GG/LL	.	.	.	.	.	.	.	16g\LL	.	16gg\LL	.	16gg\LL	.	.	.	.	.	.	16g/L	.	.	.	.	.	.	.
16GG/JJ	.	16GG/JJ	.	.	.	.	.	.	.	16g\JJ	.	16gg\JJ	.	16gg\JJ	.	.	.	.	.	.	16g/JJ	.	.	.	.	.	.	.
8GG/L	.	8GG/L	.	8r	.	8r	.	.	.	8g\L	.	8gg\L	.	8gg\L	.	.	4r	.	4r	.	8g/L	.	.	.	.	.	.	.
*	*	*	*	*	*	*	*	*ij	*	*	*	*	*	*	*	*	*	*	*	*	*	*	*	*	*	*	*	*
8GG/J	.	8GG/J	.	8G\	.	8g/	ze	ze	.	8g\J	.	8gg\J	.	8gg\J	.	.	.	.	.	.	8g/J	.	.	.	.	.	.	.
!	!	!	!	!	!LO:HP:a	!	!	!	!LO:HP:a	!	!	!	!	!	!	!	!	!	!	!	!	!	!	!	!	!	!	!
8E\L	.	8E\L	.	4E\	>	4cc 4g\	swe-	swe-	>	4cc\	.	4gg\	.	4ccc\	.	.	4E\	.	4c 4G\	.	4g/	.	.	.	.	.	.	.
8E\J	.	8E\J	.	.	.	.	.	.	.	.	.	.	.	.	.	.	.	.	.	.	.	.	.	.	.	.	.	.
8D\L	.	8D\L	.	8D\	]	8b 8g\	-mi	-mi	]	8b\L	.	8gg\L	.	4bb\	.	.	8D\L	.	8BL 8G\	.	4g/	.	.	.	.	.	.	.
8D\J	.	8D\J	.	8G\	.	8g/	ze	ze	.	8g\J	.	8gg\J	.	.	.	.	8G\J	.	8G\J	.	.	.	.	.	.	.	.	.
=20	=20	=20	=20	=20	=20	=20	=20	=20	=20	=20	=20	=20	=20	=20	=20	=20	=20	=20	=20	=20	=20	=20	=20	=20	=20	=20	=20	=20
*	*	*	*	*	*	*^	*	*	*	*	*	*	*	*	*	*	*	*	*^	*	*	*	*	*	*	*	*	*
*	*	*	*	*	*	*	*	*	*^	*	*	*	*	*	*	*	*	*	*	*	*	*	*	*	*	*	*	*	*	*
!	!	!	!	!	!	!	!LO:TX:a:t=P:problem=trzeci wers tekstu w źródle zapisany nad partią najwyższego głosu chóru	!	!	!	!	!	!	!	!	!	!	!	!	!	!	!	!	!	!	!	!	!	!	!	!
8C/L	.	8C\L	.	4c 4C\	.	[>4gg\	4ee\	swe-	swe-	swe-	.	4e\	.	4gg\	.	4eee\	.	1ryy	4C\	.	4e 4c\	2ryy	.	4g/	.	1ryy	1ryy	1ryy	1ryy	1ryy	1ryy
8C/J	.	8C\J	.	.	.	.	.	.	.	.	.	.	.	.	.	.	.	.	.	.	.	.	.	.	.	.	.	.	.	.	.
8BB/L	.	8BB\L	.	8B 8G\	.	16gg/LL]	8dd\	-mi	-mi	.	.	8d\L	.	8gg\L	.	8ddd\L	.	.	8G\	.	8d 8G\	.	.	4g/	.	.	.	.	.	.	.
.	.	.	.	.	.	16dd/JJ	.	.	.	.	.	.	.	.	.	.	.	.	.	.	.	.	.	.	.	.	.	.	.	.	.
8BB/J	.	8BB\J	.	8r	.	16b/LL	8r	.	.	-mi	.	8B\J	.	8bb\J	.	8bb\J	.	.	8r	.	8r	.	.	.	.	.	.	.	.	.	.
.	.	.	.	.	.	16g/JJ	.	.	.	.	.	.	.	.	.	.	.	.	.	.	.	.	.	.	.	.	.	.	.	.	.
4D\	.	4D\	.	4r	.	4.dd/	4r	bę-	.	bę-	.	4d\	.	16r	.	16r	.	.	4r	.	4d/	4r	.	4dd/	.	.	.	.	.	.	.
.	.	.	.	.	.	.	.	.	.	.	.	.	.	16dd\LL	.	16dd\LL	.	.	.	.	.	.	.	.	.	.	.	.	.	.	.
.	.	.	.	.	.	.	.	.	.	.	.	.	.	16gg\	.	16gg\	.	.	.	.	.	.	.	.	.	.	.	.	.	.	.
.	.	.	.	.	.	.	.	.	.	.	.	.	.	16bb\JJ	.	16bb\JJ	.	.	.	.	.	.	.	.	.	.	.	.	.	.	.
8r	.	8r	.	8A 8D\	.	.	8cc\	bę-	bę-	.	.	8r	.	8ddd\L	.	8ddd\L	.	.	4D\	.	4c 4F#X\	4ryy	.	4dd/	.	.	.	.	.	.	.
8D\	.	8D\	.	8A 8D\	.	8f#/	8cc\	-dzie	-dzie	-dzie	.	8a\	.	8dd\J	.	8ff#\J	.	.	.	.	.	.	.	.	.	.	.	.	.	.	.
*	*	*	*	*	*	*	*	*	*Xij	*	*	*	*	*	*	*	*	*	*	*	*	*	*	*	*	*	*	*	*	*	*
*	*	*	*	*	*	*	*	*	*	*	*	*	*	*	*	*	*	*	*	*	*v	*v	*	*	*	*	*	*	*	*	*
=21	=21	=21	=21	=21	=21	=21	=21	=21	=21	=21	=21	=21	=21	=21	=21	=21	=21	=21	=21	=21	=21	=21	=21	=21	=21	=21	=21	=21	=21	=21
*tremolo	*	*	*	*	*	*	*	*	*	*	*	*	*	*	*	*	*	*	*	*	*	*	*	*	*	*	*	*	*	*
*	*	*	*	*^	*	*	*	*	*	*	*	*	*	*	*	*	*	*	*	*	*	*	*	*	*	*	*	*	*	*
8GG/L	.	8G\L	.	4G/	4G\	.	4g/	4b\	tam.	pił.	tam	.	4g\	.	4b\	.	4gg\	.	1ryy	4G\	.	4B 4G\	.	4g/	.	1ryy	1ryy	1ryy	1ryy	1ryy	1ryy
8GG/	.	8D\J	.	.	.	.	.	.	.	.	.	.	.	.	.	.	.	.	.	.	.	.	.	.	.	.	.	.	.	.	.
8GG/	.	8D\L	.	4r	4ryy	.	4r	4ryy	.	.	.	.	4r	.	8.b\L	.	8.dd\L	.	.	4r	.	4r	.	4r	.	.	.	.	.	.	.
8GG/J	.	8D\J	.	.	.	.	.	.	.	.	.	.	.	.	.	.	.	.	.	.	.	.	.	.	.	.	.	.	.	.	.
.	.	.	.	.	.	.	.	.	.	.	.	.	.	.	16b\J	.	16dd\Jk	.	.	.	.	.	.	.	.	.	.	.	.	.	.
*	*	*tremolo	*	*	*	*	*	*	*	*	*	*	*	*	*	*	*	*	*	*	*	*	*	*	*	*	*	*	*	*	*
!	!	!	!	!	!	!	!	!	!	!	!	!	!	!	!	!	!	!	!	!	!	!LO:N:vis=1	!	!	!	!	!	!	!	!	!
8GG/L	.	8D\L	.	2r	2ryy	.	2r	2ryy	.	.	.	.	2r	.	8g/L	.	8b\L	.	.	2r	.	2rD	.	2r	.	.	.	.	.	.	.
.	.	.	.	.	.	.	.	.	.	.	.	.	.	.	16qqa/LL	.	16qqcc/LL	.	.	.	.	.	.	.	.	.	.	.	.	.	.
.	.	.	.	.	.	.	.	.	.	.	.	.	.	.	16qqg/JJ	.	16qqb/JJ	.	.	.	.	.	.	.	.	.	.	.	.	.	.
8GG/	.	8D\	.	.	.	.	.	.	.	.	.	.	.	.	16f#/L	.	16a\L	.	.	.	.	.	.	.	.	.	.	.	.	.	.
.	.	.	.	.	.	.	.	.	.	.	.	.	.	.	16g/JJ	.	16b\JJ	.	.	.	.	.	.	.	.	.	.	.	.	.	.
8GG/	.	8D\	.	.	.	.	.	.	.	.	.	.	.	.	8a/L	.	8cc\L	.	.	.	.	.	.	.	.	.	.	.	.	.	.
8GG/J	.	8D\J	.	.	.	.	.	.	.	.	.	.	.	.	8f#/J	.	8a\J	.	.	.	.	.	.	.	.	.	.	.	.	.	.
*	*	*	*	*	*	*	*	*	*	*v	*v	*	*	*	*	*	*	*	*	*	*	*	*	*	*	*	*	*	*	*	*
*	*	*	*	*v	*v	*	*	*	*	*	*	*	*	*	*	*	*	*	*	*	*	*	*	*	*	*	*	*	*	*
*	*	*	*	*	*	*v	*v	*	*	*	*	*	*	*	*	*	*	*	*	*	*	*	*	*	*	*	*	*	*
=22	=22	=22	=22	=22	=22	=22	=22	=22	=22	=22	=22	=22	=22	=22	=22	=22	=22	=22	=22	=22	=22	=22	=22	=22	=22	=22	=22	=22
8GG/L	.	8D\L	.	1ryy	.	1ryy	.	.	.	1ryy	.	4g/	.	4b\	.	1ryy	1ryy	.	1ryy	.	1ryy	.	1ryy	1ryy	1ryy	1ryy	1ryy	1ryy
8GG/	.	8D\	.	.	.	.	.	.	.	.	.	.	.	.	.	.	.	.	.	.	.	.	.	.	.	.	.	.
8GG/	.	8D\	.	.	.	.	.	.	.	.	.	8.B/L	.	8.g/L	.	.	.	.	.	.	.	.	.	.	.	.	.	.
8GG/J	.	8D\J	.	.	.	.	.	.	.	.	.	.	.	.	.	.	.	.	.	.	.	.	.	.	.	.	.	.
.	.	.	.	.	.	.	.	.	.	.	.	16B/Jk	.	16g/Jk	.	.	.	.	.	.	.	.	.	.	.	.	.	.
8GG/L	.	8D\L	.	.	.	.	.	.	.	.	.	8B/L	.	8d/L	.	.	.	.	.	.	.	.	.	.	.	.	.	.
.	.	.	.	.	.	.	.	.	.	.	.	16qqc/LL	.	16qqe/LL	.	.	.	.	.	.	.	.	.	.	.	.	.	.
.	.	.	.	.	.	.	.	.	.	.	.	16qqB/JJ	.	16qqd/JJ	.	.	.	.	.	.	.	.	.	.	.	.	.	.
8GG/	.	8D\	.	.	.	.	.	.	.	.	.	16A/L	.	16c/L	.	.	.	.	.	.	.	.	.	.	.	.	.	.
.	.	.	.	.	.	.	.	.	.	.	.	16B/JJ	.	16d/JJ	.	.	.	.	.	.	.	.	.	.	.	.	.	.
8GG/	.	8D\	.	.	.	.	.	.	.	.	.	8c/L	.	8e/L	.	.	.	.	.	.	.	.	.	.	.	.	.	.
8GG/J	.	8D\J	.	.	.	.	.	.	.	.	.	8A/J	.	8c/J	.	.	.	.	.	.	.	.	.	.	.	.	.	.
!!LO:PB:g=original
=23	=23	=23	=23	=23	=23	=23	=23	=23	=23	=23	=23	=23	=23	=23	=23	=23	=23	=23	=23	=23	=23	=23	=23	=23	=23	=23	=23	=23
8GG/L	.	8D\L	.	1ryy	.	1ryy	.	.	.	8D/L	.	8B/L	.	8B/L	.	1ryy	1ryy	.	1ryy	.	1ryy	.	1ryy	1ryy	1ryy	1ryy	1ryy	1ryy
.	.	.	.	.	.	.	.	.	.	.	.	16qqc/LL	.	16qqc/LL	.	.	.	.	.	.	.	.	.	.	.	.	.	.
.	.	.	.	.	.	.	.	.	.	.	.	16qqB/JJ	.	16qqB/JJ	.	.	.	.	.	.	.	.	.	.	.	.	.	.
8GG/	.	16C\L	.	.	.	.	.	.	.	16C/L	.	16A/L	.	16A/L	.	.	.	.	.	.	.	.	.	.	.	.	.	.
.	.	16D\JJ	.	.	.	.	.	.	.	16D/JJ	.	16B/JJ	.	16B/JJ	.	.	.	.	.	.	.	.	.	.	.	.	.	.
8GG/	.	8E\L	.	.	.	.	.	.	.	8E/L	.	8c/L	.	8c/L	.	.	.	.	.	.	.	.	.	.	.	.	.	.
8GG/J	.	8C\J	.	.	.	.	.	.	.	8C/J	.	8A/J	.	8A/J	.	.	.	.	.	.	.	.	.	.	.	.	.	.
8GG/	.	8BB\	.	.	.	.	.	.	.	8G/	.	8G/	.	8G/	.	.	.	.	.	.	.	.	.	.	.	.	.	.
8r	.	8r	.	.	.	.	.	.	.	8r	.	8r	.	8r	.	.	.	.	.	.	.	.	.	.	.	.	.	.
8GG/	.	8GG/	.	.	.	.	.	.	.	8G/	.	8G/	.	8G/	.	.	.	.	.	.	.	.	.	.	.	.	.	.
8r	.	8r	.	.	.	.	.	.	.	8r	.	8r	.	8r	.	.	.	.	.	.	.	.	.	.	.	.	.	.
=24	=24	=24	=24	=24	=24	=24	=24	=24	=24	=24	=24	=24	=24	=24	=24	=24	=24	=24	=24	=24	=24	=24	=24	=24	=24	=24	=24	=24
!!LO:TX:t=1mo
*>B1	*	*>B1	*	*>B1	*	*>B1	*	*	*	*>B1	*	*>B1	*	*>B1	*	*>B1	*>B1	*	*>B1	*	*>B1	*	*>B1	*>B1	*>B1	*>B1	*>B1	*>B1
!LO:TX:t=P:problem=mixed beam	!	!LO:TX:t=P:problem=mixed beam	!	!	!	!	!	!	!	!	!	!	!	!	!	!	!	!	!	!	!	!	!	!	!	!	!	!
8GG/L	.	8GG/L	.	1ryy	.	1ryy	.	.	.	8r	.	8r	.	8d 8G/	.	1ryy	1ryy	.	1ryy	.	1ryy	.	1ryy	1ryy	1ryy	1ryy	1ryy	1ryy
8G\	.	8G\	.	.	.	.	.	.	.	8B/L	.	8d/L	.	8g/L	.	.	.	.	.	.	.	.	.	.	.	.	.	.
8G\	.	8G\	.	.	.	.	.	.	.	8B/	.	8d/	.	8g/	.	.	.	.	.	.	.	.	.	.	.	.	.	.
8G\J	.	8G\J	.	.	.	.	.	.	.	8B/J	.	8d/J	.	8g/J	.	.	.	.	.	.	.	.	.	.	.	.	.	.
*	*	*	*	*	*	*	*	*	*	*tremolo	*	*tremolo	*	*tremolo	*	*	*	*	*	*	*	*	*	*	*	*	*	*
8G\L	.	8G\L	.	.	.	.	.	.	.	8B/L	.	8d/L	.	8g/L	.	.	.	.	.	.	.	.	.	.	.	.	.	.
8G\	.	8G\	.	.	.	.	.	.	.	8B/	.	8d/	.	8g/	.	.	.	.	.	.	.	.	.	.	.	.	.	.
8G\	.	8G\	.	.	.	.	.	.	.	8B/	.	8d/	.	8g/	.	.	.	.	.	.	.	.	.	.	.	.	.	.
8G\J	.	8G\J	.	.	.	.	.	.	.	8B/J	.	8d/J	.	8g/J	.	.	.	.	.	.	.	.	.	.	.	.	.	.
*	*	*Xtremolo	*	*	*	*	*	*	*	*Xtremolo	*	*Xtremolo	*	*Xtremolo	*	*	*	*	*	*	*	*	*	*	*	*	*	*
=25:|!	=25:|!	=25:|!	=25:|!	=25:|!	=25:|!	=25:|!	=25:|!	=25:|!	=25:|!	=25:|!	=25:|!	=25:|!	=25:|!	=25:|!	=25:|!	=25:|!	=25:|!	=25:|!	=25:|!	=25:|!	=25:|!	=25:|!	=25:|!	=25:|!	=25:|!	=25:|!	=25:|!	=25:|!
!!LO:TX:t=2a
*>B2	*	*>B2	*	*>B2	*	*>B2	*	*	*	*>B2	*	*>B2	*	*>B2	*	*>B2	*>B2	*	*>B2	*	*>B2	*	*>B2	*>B2	*>B2	*>B2	*>B2	*>B2
1GG;>	.	1GG;>	.	1r;>	.	1r;>	.	.	.	1G;>	.	1g 1G;>	.	1g 1G;>	.	1r;>	1r;>	.	1r;>	.	1r;>	.	1r;>	1r;>	1r;	1r;>	1r;>	1r;>
==	==	==	==	==	==	==	==	==	==	==	==	==	==	==	==	==	==	==	==	==	==	==	==	==	==	==	==	==
*-	*-	*-	*-	*-	*-	*-	*-	*-	*-	*-	*-	*-	*-	*-	*-	*-	*-	*-	*-	*-	*-	*-	*-	*-	*-	*-	*-	*-
!!!system-decoration: [(s1,s2,s3,s4,s5,s6,s7,s8,s9,s10)][(s11,s12,s13,s14,s15,s16,s17)]
!!!RDF**kern: @ = marked note, color=grey
!!!RDF**kern: > = above
!!!RDF**kern: < = below
!!!ENC: Marcin Jachim
!!!END: 2021-08-06
!!!EED: Antoni Szymański
!!!EEV: 2021-09-09
